src/lib/packages/icons/src/assets/filled/arrow-back-circle-alt.svg

<svg width="24" height="24" viewBox="0 0 24 24" fill="none" xmlns="http://www.w3.org/2000/svg">
<path d="M12 2C6.477 2 2 6.477 2 12C2 17.523 6.477 22 12 22C17.523 22 22 17.523 22 12C22 6.477 17.523 2 12 2ZM16.6731 13.98C16.6141 13.994 16.557 14 16.499 14C16.159 14 15.852 13.7681 15.77 13.4231C15.363 11.7021 13.8371 10.5 12.0601 10.5C10.8531 10.5 9.73898 11.074 9.03198 12H9.75C10.164 12 10.5 12.336 10.5 12.75C10.5 13.164 10.164 13.5 9.75 13.5H7.5C7.086 13.5 6.75 13.164 6.75 12.75V10.502C6.75 10.088 7.086 9.75195 7.5 9.75195C7.914 9.75195 8.25 10.088 8.25 10.502V10.6299C9.231 9.61688 10.594 9 12.061 9C14.537 9 16.663 10.6769 17.23 13.0769C17.325 13.4799 17.0761 13.884 16.6731 13.98Z" fill="currentColor"/>
</svg>

<svg xmlns="http://www.w3.org/2000/svg" width="24" height="24" fill="none"><path fill="currentColor" d="M12 2C6.477 2 2 6.477 2 12s4.477 10 10 10 10-4.477 10-10S17.523 2 12 2Zm4.673 11.98a.75.75 0 0 1-.903-.557 3.793 3.793 0 0 0-3.71-2.923A3.816 3.816 0 0 0 9.032 12h.718a.75.75 0 0 1 0 1.5H7.5a.75.75 0 0 1-.75-.75v-2.248a.75.75 0 0 1 1.5 0v.128A5.312 5.312 0 0 1 12.061 9a5.286 5.286 0 0 1 5.169 4.077.751.751 0 0 1-.557.903Z"/></svg>
